X:1
T:Montrosses' March
L:1/4
M:6/4
I:linebreak $
K:G
V:1 treble 
V:1
 G B B B2 e | d3/2 e/ B A2 G | G/A/ B B B2 A | B G G [GBdg] :: e e g e e g | e e g e d B | %6
 d d e d d e |$ d2 e d B G | G/A/ B B B3/2 ^c/B/c/ | d3/2 B/c/d/ e3 | d e/d/c/B/ A2 G | %11
 G/A/ B B B2 A | B G G [GBdg] :| %13
